X: 205
T: Brushy Fork of John's Creek
B: canberra pickers and fiddlers
B: old time tunes update
B: tunes
M:C|
L:1/8
R: Reel
Q: 1/4=100
K:Amixolydian
V:1 
|:"A"ea2g a2-a2 |"G"gede gede |"A"eggg g2 (3gag |"E"edBd "A"A2A2 |
  "A"eaab/a/ baga |"G"baba gede |"A"eAAB A2 (3ABA  |"E"edBe  "A"A2A2 :|
|:"A"ABde e2e2 | "G"efed Bded | "A"ABde e2ed | "E"edBe "A"A2A2 |
  "A"ABde e2ef | "G"edBd Bded | "A"ABde e2ed | "E"edBe "A"A2A2 :|
% abcbook-tune_id 67a7d9ece8f6ed3b96dd3a87
% abcbook-tune_composer_id 
% abcbook-link-0 https://www.youtube.com/watch?v=WyAQJA5s3OI
% abcbook-link-title-0 Hiram Stamper 1985 brushy fork of johns creek
% abcbook-link-1 https://www.youtube.com/watch?v=IF_PBnroq7I
% abcbook-link-title-1 Laurel Premo: &quot;The Brushy Fork of John&#39;s Creek&quot; (Official Video)
% abcbook-boost 0
% abcbook-difficulty 0
% abcbook-tags old time tunes
% abcbook-tablature 
% abcbook-transpose 
% abcbook-tuning GDGD
% abcbook-lastupdated 1739066127737
% abcbook-src-url 
% abcbook-soundfonts 
% abcbook-repeats 1


